img/results-03.svg

<svg xmlns="http://www.w3.org/2000/svg" width="32" height="32" viewBox="0 0 32 32" fill="#B68157"><title>history2</title><path d="M27.314 4.686c-3.022-3.022-7.040-4.686-11.314-4.686-4.95 0-9.56 2.28-12.565 6.091v-2.091c0-0.442-0.358-0.8-0.8-0.8s-0.8 0.358-0.8 0.8v4.755c0 0.366 0.248 0.685 0.603 0.776 0.155 0.040 0.312 0.030 0.454-0.018v0l4.565-1.555c0.418-0.142 0.642-0.597 0.499-1.014s-0.597-0.642-1.014-0.499l-2.384 0.813c2.701-3.533 6.912-5.654 11.443-5.654 7.941 0 14.4 6.459 14.4 14.4s-6.459 14.4-14.4 14.4c-5.306 0-10.166-2.904-12.685-7.579-0.21-0.389-0.694-0.534-1.083-0.325s-0.534 0.694-0.325 1.083c2.798 5.194 8.2 8.421 14.094 8.421 4.274 0 8.291-1.664 11.314-4.686s4.686-7.040 4.686-11.314c0-4.274-1.664-8.291-4.686-11.314zM16 16.8c-0.134 0-0.267-0.034-0.389-0.101l-7.2-4c-0.386-0.214-0.525-0.701-0.31-1.088s0.701-0.525 1.088-0.31l6.784 3.768 8.398-5.344c0.373-0.237 0.867-0.128 1.104 0.245s0.128 0.867-0.245 1.104l-8.8 5.6c-0.131 0.083-0.28 0.125-0.429 0.125z"></path></svg>

<svg width="32" height="32" viewBox="0 0 32 32" fill="none" xmlns="http://www.w3.org/2000/svg">
<g clip-path="url(#clip0_43_45)">
<path d="M27.314 4.686C24.292 1.664 20.274 0 16 0C11.05 0 6.44 2.28 3.435 6.091V4C3.435 3.558 3.077 3.2 2.635 3.2C2.193 3.2 1.835 3.558 1.835 4V8.755C1.835 9.121 2.083 9.44 2.438 9.531C2.593 9.571 2.75 9.561 2.892 9.513L7.457 7.958C7.875 7.816 8.099 7.361 7.956 6.944C7.813 6.527 7.359 6.302 6.942 6.445L4.558 7.258C7.259 3.725 11.47 1.604 16.001 1.604C23.942 1.604 30.401 8.063 30.401 16.004C30.401 23.945 23.942 30.404 16.001 30.404C10.695 30.404 5.835 27.5 3.316 22.825C3.106 22.436 2.622 22.291 2.233 22.5C1.844 22.709 1.699 23.194 1.908 23.583C4.706 28.777 10.108 32.004 16.002 32.004C20.276 32.004 24.293 30.34 27.316 27.318C30.339 24.296 32.002 20.278 32.002 16.004C32.002 11.73 30.338 7.713 27.316 4.69L27.314 4.686ZM16 16.8C15.866 16.8 15.733 16.766 15.611 16.699L8.411 12.699C8.025 12.485 7.886 11.998 8.101 11.611C8.316 11.224 8.802 11.086 9.189 11.301L15.973 15.069L24.371 9.725C24.744 9.488 25.238 9.597 25.475 9.97C25.712 10.343 25.603 10.837 25.23 11.074L16.43 16.674C16.299 16.757 16.15 16.799 16.001 16.799L16 16.8Z" fill="#008DBB"/>
</g>
<defs>
<clipPath id="clip0_43_45">
<rect width="32" height="32" fill="white"/>
</clipPath>
</defs>
</svg>
